X:1
T:Title
%%score { ( 1 2 ) | ( 3 4 ) }
L:1/8
M:4/4
K:D
V:1 treble nm="Grand Piano"
V:2 treble 
V:3 bass 
V:4 bass 
V:1
 z4 z2[Q:1/4=106] z E | [A,DF]2[K:bass] [G,CE]2 [F,D]2[K:treble] FG | A2 G2 F2 A2 | %3
 B2 d2 c2 [DB]2 |[M:9/8] [DA]2 [DF]- [DF] [CE]2- [CE] z E | %5
[M:4/4] [A,DF]2[K:bass] [G,CE]2 [F,D]2[K:treble] FG | A2 B2 c2 [EB]2 | [Ee]2 [Fd]2 c2 A2 | %8
 B3 [CA] [CA]4 | [CA]4[K:bass] z4[K:treble] | [DF]4 [FA]4 | [DGB]2 [DBd]2 [DAc]2 [DGB]2 | %12
 [DGB]4 [DFA]2 z2 | d4 c2 B2 |[M:9/8] A3- A B2- B z D |[M:4/4] D2 [DE]2 [DF]2 [DA]2 | %16
[M:3/4] [CE]4 D2 |] %17
V:2
 z4 z2 D2 | z4[K:bass] z2[K:treble] [A,D]2 | x8 | x8 |[M:9/8] z3 z3 z D2 | %5
[M:4/4] z4[K:bass] z2[K:treble] [A,D]2 | x8 | x8 | x8 | z2[K:bass] [A,,E,]2 [CE]2[K:treble] [EG]2 | %10
 z2 A,A, D2 D2 | x8 | x8 | x8 |[M:9/8] x9 |[M:4/4] x8 |[M:3/4] x6 |] %17
V:3
 z4 z2 F,G, | D,2 A,,2 D,2 D,E, | [F,A,D]2 [E,A,C]2 [D,A,D]2 [D,F,D]2 | %3
 [G,D]2 [G,B,D]2 [G,A,D]2 [G,,G,]2 |[M:9/8] [D,F,]2 [D,A,]- [D,A,] [A,,A,]2- [A,,A,]F,G, | %5
[M:4/4] D,2 A,,2 D,2 D,E, | [F,A,D]2 [F,A,^D]2 [E,A,E]2 [D,^G,]2 | %7
 [C,A,]2 [D,A,]2 [E,A,E]2 [E,CE]2 | [E,^G,D]3 [A,,A,] [A,,A,]4 | [A,,E,]2 z2 [A,,A,]4 | %10
 [D,A,]2 D,D, D,2 D,2 | G,2 G,2 G,2 G,2 | D,4 D,2 z2 | D4 C2 B,2 | %14
[M:9/8] A,3- A, B,2- B, z [B,,F,] |[M:4/4] [B,,F,]2 [B,,G,]2 [A,,A,]2 [A,,F,]2 | %16
[M:3/4] [A,,G,]4 [D,F,]2 |] %17
V:4
 z4 z2 D,2 | x8 | x8 | x8 |[M:9/8] z3 z3 z D,2 |[M:4/4] x8 | x8 | x8 | x8 | x8 | x8 | x8 | x8 | %13
 x8 |[M:9/8] x9 |[M:4/4] x8 |[M:3/4] x6 |] %17

